X:806
T:Push About the Jorum
R:Reel
B:The Athole Collection
M:C|
L:1/8
K:G
g|dGBG FAAc|BGBd g2fe|dGBG FAAc|BGAF G2G:|
f|g2fg afed|ggfg a2df|g2fg afed|egfa g2gd|
g2fg afed|ggfg a2df|g2fg afed|egfa gbeg||

